X: 1
T: The Hautboy
R: jig
M: 6/8
L: 1/8
K: Gmaj
|:D|DEG A3|BAG GAB|cdc B2A|AGE E2G|
DEG A3|BAG GAB|cde B2A|AGE E2:|
|:efe d2c|BGE GAB|Bee d2c|BGB c2d|
efe d2c|BGE GAB|cdc B2A|AGE E2G|
DEG A3|BAG GAB|cdc B2A|AGE E2G|
DEG A3|BAG GAB|cde B2A|AGE E3||

